X: 35866
T: Sand Worms
R: reel
M: 4/4
K: Eminor
FGE B2 B2 A|BcA B2 AGE|F2 DA A d2 d|d3 B BAFD|
FGE B2 B2A|BcA B2 AGE|FDDf gfed|e2 e3 dBA:|
Bded e2 ef|gfe b2 ege|dBde z e3|f3 g3 f2|
Bded e2 ef|gfe b2 ege|dBdf edBd|e2 e3 dBA|
Bded e2 ef|gfe b2 ege|dBde z e3|f3 g3 f2|
Bded e2 ef|gfeb agef|gfga gedB|ABAG EDDE||

